packages/core/src/svgs/pry.svg

<svg width="24" height="24" viewBox="0 0 24 24" fill="none" xmlns="http://www.w3.org/2000/svg">
<g clip-path="url(#clip0_31_16510)">
<path d="M0 0H24V24H0V0Z" fill="#181B1E"/>
<path d="M4.28577 15.8573H19.7143V16.2859H4.28577V15.8573ZM4.28577 15.0001H19.7143V15.4287H4.28577V15.0001ZM16.8515 8.57157C16.7786 8.42585 16.7015 8.28014 16.6158 8.143H16.2858V7.67157C16.1529 7.50014 16.0115 7.333 15.8572 7.17871V8.57157H16.8515Z" fill="#EAEAE8"/>
<path d="M15 6.47119C15.15 6.57405 15.2914 6.67691 15.4286 6.78833V8.99976L17.0443 9.00405C17.1 9.14119 17.1471 9.28262 17.19 9.42833H15V6.47119Z" fill="#EAEAE8"/>
<path d="M14.1343 6.00439C14.2843 6.06868 14.43 6.14154 14.5714 6.21868V9.85725H17.3014C17.3314 9.99868 17.3528 10.1401 17.3743 10.2858H14.1343V6.00439Z" fill="#EAEAE8"/>
<path d="M13.2858 5.72119C13.4315 5.75548 13.5729 5.79833 13.7143 5.84548V10.714H17.4086C17.4156 10.8568 17.4171 10.9998 17.4129 11.1426H13.2858V5.72119Z" fill="#EAEAE8"/>
<path d="M12.4286 5.57129C12.5743 5.58415 12.7158 5.61415 12.8572 5.63557V11.5713H17.3829C17.37 11.717 17.3486 11.8584 17.3186 11.9999H12.4286V5.57129ZM11.1429 5.63557C11.2843 5.61415 11.4258 5.58415 11.5715 5.57129V11.9999H6.68147C6.65147 11.8584 6.63004 11.717 6.61719 11.5713H11.1429V5.63557Z" fill="#EAEAE8"/>
<path d="M10.2857 5.84548C10.4271 5.79833 10.5686 5.75976 10.7143 5.72119V11.1426H6.58713C6.58147 10.9998 6.58147 10.8568 6.58713 10.714H10.2857V5.84548Z" fill="#EAEAE8"/>
<path d="M9.42859 6.21439C9.57002 6.14154 9.71573 6.06868 9.86573 6.00439V10.2858H6.62573C6.64716 10.1401 6.66859 9.99868 6.69859 9.85725H9.42859V6.21439Z" fill="#EAEAE8"/>
<path d="M8.57149 6.78844C8.70863 6.67701 8.85006 6.57416 9.00006 6.47559V9.42844H6.81006C6.85292 9.2913 6.89577 9.15416 6.9472 9.0213H8.57149V6.79273V6.78844Z" fill="#EAEAE8"/>
<path d="M7.71432 7.67157C7.84717 7.50014 7.9886 7.333 8.14289 7.17871V8.57157H7.1486C7.22146 8.42585 7.2986 8.28014 7.38431 8.143H7.71432V7.67157ZM6.92146 12.8573C6.86574 12.7159 6.82289 12.5744 6.78003 12.4287H17.22C17.1772 12.5744 17.1343 12.7159 17.0786 12.8573H6.92146ZM7.3286 13.7144C7.24289 13.5773 7.17003 13.4316 7.10146 13.2859H16.8986C16.83 13.4316 16.7529 13.5773 16.6715 13.7144H7.3286ZM7.95003 14.5716C7.83003 14.4344 7.71432 14.293 7.60717 14.143H16.3929C16.2857 14.293 16.17 14.4344 16.05 14.5716H7.95003Z" fill="#EAEAE8"/>
</g>
<defs>
<clipPath id="clip0_31_16510">
<rect width="24" height="24" fill="white"/>
</clipPath>
</defs>
</svg>

<svg xmlns="http://www.w3.org/2000/svg" width="24" height="24" fill="none" viewBox="0 0 24 24"><g clip-path="url(#a)"><path fill="#181B1E" d="M0 0h24v24H0z"/><path fill="#EAEAE8" d="M4.286 15.857h15.428v.429H4.286zm0-.857h15.428v.429H4.286zm12.566-6.428a5 5 0 0 0-.236-.429h-.33v-.471a5 5 0 0 0-.429-.493v1.393z"/><path fill="#EAEAE8" d="M15 6.471q.224.152.429.317V9l1.615.004q.083.206.146.424H15z"/><path fill="#EAEAE8" d="M14.134 6.004q.225.099.437.215v3.638h2.73q.043.211.073.429h-3.24z"/><path fill="#EAEAE8" d="M13.286 5.721a5 5 0 0 1 .428.124v4.869h3.695q.01.215.004.429h-4.127z"/><path fill="#EAEAE8" d="M12.429 5.571c.145.013.287.043.428.065v5.935h4.526a4 4 0 0 1-.064.429h-4.89zm-1.286.065c.141-.022.283-.052.428-.065V12h-4.89a4 4 0 0 1-.064-.429h4.526z"/><path fill="#EAEAE8" d="M10.286 5.845c.141-.047.283-.085.428-.124v5.422H6.587a5 5 0 0 1 0-.429h3.699z"/><path fill="#EAEAE8" d="M9.429 6.214c.141-.072.287-.145.437-.21v4.282h-3.24q.03-.218.073-.429h2.73z"/><path fill="#EAEAE8" d="M8.571 6.788q.206-.166.43-.312v2.952H6.81q.061-.207.136-.407h1.624V6.788"/><path fill="#EAEAE8" d="M7.714 7.672a5 5 0 0 1 .429-.493v1.393h-.994c.072-.146.15-.292.235-.429h.33zm-.793 5.185a5 5 0 0 1-.141-.428h10.44a5 5 0 0 1-.141.428zm.408.857a4 4 0 0 1-.228-.428H16.9a5 5 0 0 1-.227.428zm.621.858a6 6 0 0 1-.343-.429h8.786q-.162.224-.343.429z"/></g><defs><clipPath id="a"><path fill="#fff" d="M0 0h24v24H0z"/></clipPath></defs></svg>
